tools/download-figma-icons/icons/solid/semi-detached-house.svg

<svg width="25" height="24" viewBox="0 0 25 24" fill="none" xmlns="http://www.w3.org/2000/svg">
<path d="M12.7508 12.75V23.25H15.0008V17.625C15.0008 17.415 15.1658 17.25 15.3758 17.25H19.1258C19.3358 17.25 19.5008 17.415 19.5008 17.625V23.25H21.7508C22.1633 23.25 22.5008 22.9125 22.5008 22.5V12.75H12.7508ZM18.0008 15.75H16.5008C16.0883 15.75 15.7508 15.4125 15.7508 15C15.7508 14.5875 16.0883 14.25 16.5008 14.25H18.0008C18.4133 14.25 18.7508 14.5875 18.7508 15C18.7508 15.4125 18.4133 15.75 18.0008 15.75Z" fill="black"/>
<path d="M1.50079 12.75V22.5C1.50079 22.9125 1.83829 23.25 2.25079 23.25H4.50079V17.625C4.50079 17.415 4.66579 17.25 4.87579 17.25H8.62579C8.83579 17.25 9.00079 17.415 9.00079 17.625V23.25H11.2508V12.75H1.50079ZM7.50079 15.75H6.00079C5.58829 15.75 5.25079 15.4125 5.25079 15C5.25079 14.5875 5.58829 14.25 6.00079 14.25H7.50079C7.91329 14.25 8.25079 14.5875 8.25079 15C8.25079 15.4125 7.91329 15.75 7.50079 15.75Z" fill="black"/>
<path d="M23.8808 10.905C23.7458 11.1225 23.5058 11.25 23.2508 11.25H12.7508V3.75H20.4383C20.7308 3.75 20.9933 3.915 21.1208 4.185L23.9333 10.185C24.0383 10.4175 24.0233 10.6875 23.8808 10.905Z" fill="black"/>
<path d="M7.50079 3.75V1.125C7.50079 0.915 7.33579 0.75 7.12579 0.75H4.87579C4.66579 0.75 4.50079 0.915 4.50079 1.125V3.75H3.56329C3.27079 3.75 3.00829 3.915 2.88079 4.185L0.0682907 10.185C-0.0367093 10.4175 -0.0217093 10.6875 0.120791 10.905C0.255791 11.1225 0.495791 11.25 0.750791 11.25H11.2508V3.75H7.50079Z" fill="black"/>
</svg>

<svg width="25" height="24" viewBox="0 0 25 24" fill="none" xmlns="http://www.w3.org/2000/svg"><path d="M12.75 12.75v10.5H15v-5.625c0-.21.166-.375.376-.375h3.75c.21 0 .375.165.375.375v5.625h2.25c.412 0 .75-.337.75-.75v-9.75h-9.75Zm5.25 3h-1.5a.752.752 0 0 1-.75-.75c0-.412.338-.75.75-.75H18c.413 0 .75.338.75.75s-.337.75-.75.75Zm-16.5-3v9.75c0 .413.338.75.75.75H4.5v-5.625c0-.21.166-.375.376-.375h3.75c.21 0 .375.165.375.375v5.625h2.25v-10.5H1.5Zm6 3H6a.752.752 0 0 1-.75-.75c0-.412.338-.75.75-.75h1.5c.413 0 .75.338.75.75s-.337.75-.75.75Zm16.38-4.845a.739.739 0 0 1-.63.345h-10.5v-7.5h7.688a.75.75 0 0 1 .683.435l2.812 6a.747.747 0 0 1-.052.72ZM7.5 3.75V1.125A.371.371 0 0 0 7.127.75h-2.25a.371.371 0 0 0-.375.375V3.75h-.938a.75.75 0 0 0-.682.435l-2.813 6a.747.747 0 0 0 .053.72.739.739 0 0 0 .63.345h10.5v-7.5H7.5Z" fill="currentColor"/></svg>
